!!!OTL@@DE: Liebesscherz
!!!ONB: Volksweise
!!!ODT: 1827
!!!OMD: Innig
!!!ONB: Scha&auml;bisches Volkslied
!!!OCL: Erk, Ludwig
!!!GCO: Deutscher Liederschatz, Band 1
**kern	**kern	**kern
*staff3	*staff2	*staff1
*Ipiano	*Ipiano	*Ivox
*>[A,A1,A,A2,B,C,C]	*>[A,A1,A,A2,B,C,C]	*>[A,A1,A,A2,B,C,C]
*>norep[A,A2,B,C]	*>norep[A,A2,B,C]	*>norep[A,A2,B,C]
*>A	*>A	*>A
=1-	=1-	=1-
*clefF4	*clefG2	*clefG2
*k[b-e-]	*k[b-e-]	*k[b-e-]
*B-:	*B-:	*B-:
*M3/8	*M3/8	*M3/8
*MM120	*MM120	*MM120
8BB-\ 8B-\L	8d/ 8f/L	8f/
8B-\ 8d\	8f/ 8b-/	8b-\
8B-\ 8d\J	8f/ 8b-/J	8b-\
=2	=2	=2
8.F\ 8.c\L	8.f/ 8.a/L	8.a/
16F\ 16B-\k	16f/ 16g/k	16g/
8F\ 8A\J	8f/J	8f/
=3	=3	=3
8F\ 8c\L	8a\ 8ee-\L	8ee-\
8F\ 8e-\	8a\ 8cc\	8cc\
8F\ 8c\J	8f\ 8a\J	8a/
=4	=4	=4
*>A1	*>A1	*>A1
8B-\L	8e-/ 8f/ 8cc/L	8cc\
8BB-\J	8d/ 8f/ 8b-/J	8b-\
8r	8r	8r
=5:|!	=5:|!	=5:|!
*>A2	*>A2	*>A2
8B-\L	4d/ 4f/ 4b-/	4b-\
8BB-\J	.	.
8r	8r	8r
=6	=6	=6
*>B	*>B	*>B
*	*^	*
8En\L	8.cc/L	4g\ 4b-\	8.cc\
8C\	.	.	.
.	16dd/k	.	16dd\
8E\J	8cc/J	8g\ 8b-\	8cc\
=7	=7	=7	=7
8F\L	8.cc/L	4f\ 4a\	8.cc\
8C\	.	.	.
.	16dd/k	.	16dd\
8F\J	8cc/J	8f\ 8a\	8cc\
=8	=8	=8	=8
8G\L	8.cc/L	4en\ 4b-\	8.cc\
8C\	.	.	.
.	16dd/k	.	16dd\
8G\J	8cc/J	8e\ 8b-\	8cc\
=9	=9	=9	=9
8A\L	8.cc/L	4f\ 4a\	8.cc\
8F\	.	.	.
.	16dd/k	.	16dd\
8A\J	8cc/J	8f\ 8a\	8cc\
*	*v	*v	*
=10!|:	=10!|:	=10!|:
*>C	*>C	*>C
8F\ 8d\L	8f/ 8b-/L	8b-\
8F\ 8c\	8e-/ 8a/	8a/
8F\ 8B-\J	8e-/ 8g/J	8g/
=11	=11	=11
8F\ 8A\	8e-/ 8f/	8f/
4F^\ 4c^\	4f^\ 4a^\ 4ee-^\	4ee-^\
=12	=12	=12
*	*^	*
8F\ 8A\ 8e-\L	(16dd/LL	8f\L	16dd\LL
.	16cc/)	.	16cc\JJ
8F\ 8c\ 8e-\	(16b-/	8f\	16b-/LL
.	16a/JJ	.	16a/JJ
8F\ 8c\ 8e-\J	(16g/LL)	8f\J	16g/LL
.	16a/JJ)	.	16a/JJ
*	*v	*v	*
=13	=13	=13
8B-\L	4d/ 4f/ 4b-/	4b-\
8BB-\J	.	.
8r	8r	8r
==:|!	==:|!	==:|!
*-	*-	*-
!!!ENC: Craig Stuart Sapp
!!!END: 2004/06/01/
!!!EFL: 127/651
